assets/src/images/icons/ic_videocam.svg

<svg width="54" height="43" viewBox="0 0 54 43" fill="none" xmlns="http://www.w3.org/2000/svg">
<path fill-rule="evenodd" clip-rule="evenodd" d="M53.2094 30.4064C52.7727 30.4064 52.4184 30.7607 52.4184 31.1974V32.0972H51.5182C51.0815 32.0972 50.7271 32.4515 50.7271 32.8883C50.7271 33.3254 51.0815 33.6793 51.5182 33.6793H52.4184V39.3413L42.0955 35.3268C42.1396 35.0842 42.1639 34.8345 42.1639 34.5795C42.1639 34.2705 42.1293 33.9693 42.065 33.6793H48.1365C48.5732 33.6793 48.9276 33.3254 48.9276 32.8883C48.9276 32.4515 48.5732 32.0972 48.1365 32.0972H41.3729C41.3634 32.0972 41.3539 32.0985 41.3444 32.0989C41.117 31.7919 40.8476 31.518 40.5464 31.284L38.2092 22.9016L42.819 21.6112C43.4571 21.4328 43.9878 21.0159 44.3128 20.4383C44.6379 19.8603 44.7187 19.1908 44.5399 18.5522L42.8948 12.6747C43.2079 12.4621 43.4711 12.1803 43.6623 11.8408C43.9874 11.2628 44.0677 10.5933 43.8889 9.95474L41.6102 1.81337C41.2414 0.495411 39.8687 -0.276661 38.5511 0.0920714L5.66762 9.29679C5.13986 9.44469 4.76825 9.89253 4.72087 10.4388C4.67349 10.9847 4.96229 11.4902 5.45668 11.7263L7.95747 12.9219L7.98302 13.0134C6.36471 15.1116 5.82459 17.8436 6.54269 20.4086C7.2608 22.9741 9.14113 25.0291 11.6143 25.982L12.0782 27.6387C12.3847 28.7337 13.3838 29.4518 14.469 29.4518C14.6898 29.4518 14.9144 29.4222 15.1373 29.3595L31.8007 24.6954L34.1218 33.0193C33.9265 33.5017 33.8182 34.0278 33.8182 34.5795C33.8182 36.88 35.6899 38.7521 37.9908 38.7521C39.4757 38.7521 40.7808 37.9722 41.5208 36.8009L52.418 41.0387V42.1885C52.418 42.6253 52.7723 42.9796 53.209 42.9796C53.6461 42.9796 54 42.6253 54 42.1885V31.1974C54.0004 30.7607 53.6461 30.4064 53.2094 30.4064ZM38.9776 1.61562C39.4555 1.48213 39.9532 1.76187 40.0866 2.23978L42.3658 10.3812C42.4305 10.6127 42.4012 10.8558 42.2834 11.0651C42.1655 11.2743 41.9736 11.4251 41.7424 11.4902H41.7416L41.7415 11.4905L41.7408 11.4906L20.5739 17.4155C20.1532 17.5333 19.9077 17.97 20.0255 18.3907C20.1429 18.8113 20.5797 19.0569 21.0003 18.939L41.4062 13.2272L43.0163 18.9786C43.1502 19.4565 42.8705 19.9542 42.3926 20.0881L18.729 26.7117L16.8767 20.0934L17.7435 19.8508C18.1642 19.7329 18.4097 19.2966 18.2919 18.8756C18.174 18.455 17.7382 18.209 17.3171 18.3272L15.6885 18.7833C15.2106 18.9168 14.7129 18.6371 14.5794 18.1591L13.6467 14.827C13.4539 14.1377 12.9726 13.5654 12.3271 13.2569L6.81008 10.6197L38.9776 1.61562ZM8.06624 19.9822C7.59986 18.3161 7.78773 16.5627 8.55486 15.0556L11.0425 23.9398C9.60379 23.0499 8.53261 21.6487 8.06624 19.9822ZM14.7108 27.8364C14.2325 27.9699 13.7357 27.6902 13.6018 27.2122L13.0279 25.1622C13.0274 25.1609 13.027 25.1597 13.027 25.1585L9.85552 13.8291L11.6448 14.684C11.8788 14.7961 12.0535 15.0037 12.1231 15.2534L13.0559 18.5856C13.3504 19.637 14.2836 20.339 15.3181 20.3934L17.2059 27.1381L14.7108 27.8364ZM36.6856 23.328L38.6752 30.4637C38.4527 30.4266 38.224 30.4064 37.9912 30.4064C36.9707 30.4064 36.0347 30.7751 35.3092 31.3861L33.3246 24.269L36.6856 23.328ZM37.9912 37.1701C36.5625 37.1701 35.4002 36.0079 35.4002 34.5791C35.4002 33.1507 36.5625 31.9885 37.9912 31.9885C39.4196 31.9885 40.5818 33.1507 40.5818 34.5791C40.5818 36.0079 39.4196 37.1701 37.9912 37.1701ZM1.54231 17.6325L3.69496 18.222C3.765 18.2414 3.83504 18.2505 3.90426 18.2505C4.25198 18.2505 4.57045 18.0198 4.66685 17.6683C4.78221 17.2473 4.5346 16.8118 4.11314 16.6964L1.96048 16.1065C1.53901 15.9911 1.10395 16.2391 0.988179 16.6602C0.872822 17.0817 1.12084 17.5167 1.54231 17.6325ZM4.80944 20.8939C4.69161 20.4733 4.25531 20.2273 3.83426 20.3452L0.577874 21.2569C0.157231 21.3747 -0.0883161 21.811 0.0295136 22.2321C0.127156 22.5815 0.444801 22.8097 0.790462 22.8097C0.861325 22.8097 0.933011 22.8002 1.00429 22.7805L4.26067 21.8687C4.68172 21.7509 4.92727 21.3146 4.80944 20.8939ZM3.71021 25.3778L5.24365 23.7557C5.54399 23.4385 6.04456 23.4245 6.36179 23.7248C6.67944 24.0248 6.69345 24.5258 6.3931 24.843L4.85967 26.4646C4.70394 26.6294 4.49465 26.7122 4.28453 26.7122C4.08966 26.7122 3.89437 26.6405 3.74152 26.4959C3.42388 26.196 3.40987 25.695 3.71021 25.3778ZM37.9915 33.788H37.9998C38.437 33.788 38.7911 34.1424 38.7911 34.5793C38.7911 35.0166 38.437 35.3706 37.9998 35.3706C37.5629 35.3706 37.2043 35.0166 37.2043 34.5793C37.2043 34.1424 37.5542 33.788 37.9915 33.788Z" fill="#0090A1"/>
</svg>

<svg width="54" height="43" viewBox="0 0 54 43" fill="none" xmlns="http://www.w3.org/2000/svg"><path fill-rule="evenodd" clip-rule="evenodd" d="M53.21 30.406a.791.791 0 00-.792.791v.9h-.9a.791.791 0 000 1.582h.9v5.662l-10.322-4.014a4.175 4.175 0 00-.031-1.648h6.072a.791.791 0 100-1.582h-6.764l-.029.002a4.197 4.197 0 00-.798-.815l-2.337-8.382 4.61-1.29a2.465 2.465 0 001.494-1.174 2.465 2.465 0 00.227-1.886l-1.645-5.877a2.47 2.47 0 00.767-.834 2.465 2.465 0 00.227-1.886L41.61 1.813a2.485 2.485 0 00-3.059-1.72L5.668 9.296c-.528.148-.9.596-.947 1.142a1.292 1.292 0 00.736 1.287l2.5 1.196.026.091a8.388 8.388 0 00-1.44 7.396 8.388 8.388 0 005.071 5.573l.464 1.657a2.486 2.486 0 003.06 1.72L31.8 24.696l2.32 8.324a4.147 4.147 0 00-.303 1.56 4.178 4.178 0 004.173 4.173c1.485 0 2.79-.78 3.53-1.951l10.897 4.238v1.15a.791.791 0 001.582 0V31.196a.79.79 0 00-.79-.79zM38.977 1.616a.9.9 0 011.109.624l2.279 8.141a.895.895 0 01-.083.684.895.895 0 01-.54.425h-.002l-21.167 5.926A.791.791 0 0021 18.939l20.406-5.712 1.61 5.752a.901.901 0 01-.623 1.11l-23.664 6.623-1.852-6.619.867-.242a.791.791 0 00-.427-1.524l-1.629.456a.9.9 0 01-1.109-.624l-.932-3.332a2.481 2.481 0 00-1.32-1.57L6.81 10.62l32.168-9.004zM8.066 19.982a6.805 6.805 0 01.489-4.926l2.488 8.884a6.804 6.804 0 01-2.977-3.958zm6.645 7.854a.9.9 0 01-1.11-.624l-.573-2.05a.01.01 0 01-.001-.003l-3.171-11.33 1.789.855a.9.9 0 01.478.57l.933 3.332a2.485 2.485 0 002.262 1.807l1.888 6.745-2.495.698zm21.975-4.508l1.99 7.136a4.158 4.158 0 00-3.367.922l-1.984-7.117 3.36-.941zM37.99 37.17a2.594 2.594 0 01-2.59-2.59 2.594 2.594 0 012.59-2.591 2.594 2.594 0 012.59 2.59 2.594 2.594 0 01-2.59 2.591zM1.542 17.632l2.153.59a.791.791 0 00.418-1.526l-2.153-.59a.792.792 0 00-.418 1.526zm3.267 3.262a.791.791 0 00-.975-.549l-3.256.912a.791.791 0 00.426 1.523l3.257-.911a.79.79 0 00.548-.975zM3.71 25.378l1.534-1.622a.791.791 0 011.15 1.087L4.86 26.465a.788.788 0 01-1.118.03.79.79 0 01-.032-1.117zm34.282 8.41H38a.791.791 0 110 1.583.795.795 0 01-.796-.792c0-.437.35-.791.788-.791z" fill="#0090A1"/></svg>
